X: 41141
T: Trip We Took Over The Mountain, The
R: waltz
M: 3/4
K: Gmajor
D2 G3A|B2 G2 G2|A2 ^G2 A2|f3 gaf|
g2 d2 de|d2 c2 AF|G3 BAG|F3 AGF|
D2 G3A|B2 G2 GB|A2 ^G2 A2|f3 gaf|
g2 d2 de|d3 cAF|G6|G4||
g2|g2 d2 g2|g3 bag|f2 d2 e2|=f3 ga^f|
g2 d2 de|d2 c2 AF|G3 BAG|F4 g2|
g2 d2 g2|g3 bag|f2 d2 e2|f3 gaf|
g2 d2 de|d3 cAF|G6|G3 AGF||

